Papirus-nordic/22x22/places/folder-nordic-videos-open.svg

<svg xmlns="http://www.w3.org/2000/svg" width="22" height="22" version="1">
 <rect width="20" height="12" x="1" y="8.5" rx="1" ry="1" opacity=".2"/>
 <path d="M1 16c0 .554.446 1 1 1h18c.554 0 1-.446 1-1V5c0-.554-.446-1-1-1H10V3c0-.554-.446-1-1-1H2c-.554 0-1 .446-1 1" fill="#6c9b9a"/>
 <rect width="20" height="10" x="1" y="9.5" rx="1" ry="1" opacity=".2"/>
 <rect width="16" height="8" x="3" y="6" rx="1" ry="1" fill="#e4e4e4"/>
 <rect width="20" height="10" x="1" y="10" rx="1" ry="1" fill="#82abaa"/>
 <path d="M2 2c-.554 0-1 .446-1 1v.5c0-.554.446-1 1-1h7c.554 0 1 .446 1 1V3c0-.554-.446-1-1-1zm8 2v.5h10c.554 0 1 .446 1 1V5c0-.554-.446-1-1-1z" opacity=".1" fill="#fff"/>
 <path d="M7.5 12c-.277 0-.5.223-.5.5v4c0 .277.223.5.5.5h5c.277 0 .5-.223.5-.5v-4c0-.277-.223-.5-.5-.5zm5.5 2.5l2 1.5v-3z" fill="#4e6766"/>
</svg>

<svg xmlns="http://www.w3.org/2000/svg" width="22" height="22" version="1">
 <rect style="opacity:0.2" width="20" height="12" x="1" y="8.5" rx="1" ry="1"/>
 <path style="fill:#6c9b9a" d="M 1,16 C 1,16.554 1.446,17 2,17 H 20 C 20.554,17 21,16.554 21,16 V 5 C 21,4.446 20.554,4 20,4 H 11 C 9.5,4 9,2 7.5,2 H 2 C 1.446,2 1,2.446 1,3"/>
 <rect style="opacity:0.2" width="20" height="10" x="1" y="9.5" rx="1" ry="1"/>
 <rect style="fill:#eceff4" width="16" height="8" x="3" y="6" rx="1" ry="1"/>
 <rect style="fill:#82abaa" width="20" height="10" x="1" y="10" rx="1" ry="1"/>
 <path style="opacity:0.1;fill:#ffffff" d="M 2,2 C 1.446,2 1,2.446 1,3 V 3.5 C 1,2.946 1.446,2.5 2,2.5 H 7.5 C 9,2.5 9.5,4.5 11,4.5 H 20 C 20.554,4.5 21,4.946 21,5.5 V 5 C 21,4.446 20.554,4 20,4 H 11 C 9.5,4 9,2 7.5,2 Z"/>
 <path style="fill:#4e6766" d="M 7.5,12 C 7.223,12 7,12.223 7,12.5 V 16.5 C 7,16.777 7.223,17 7.5,17 H 12.5 C 12.777,17 13,16.777 13,16.5 V 14.5 12.5 C 13,12.223 12.777,12 12.5,12 Z M 13,14.5 15,16 V 13 Z"/>
</svg>
